public/assets/img/pinia.svg

<svg height="477" viewBox="-10 -40 349 550" width="319" xmlns="http://www.w3.org/2000/svg" xmlns:xlink="http://www.w3.org/1999/xlink"><linearGradient id="a"><stop offset="0" stop-color="#52ce63"/><stop offset="1" stop-color="#51a256"/></linearGradient><linearGradient id="b" x1="55.342075%" x2="42.816933%" xlink:href="#a" y1="0%" y2="42.862855%"/><linearGradient id="c" x1="55.348642%" x2="42.808103%" xlink:href="#a" y1="0%" y2="42.862855%"/><linearGradient id="d" x1="50%" x2="50%" y1="0%" y2="58.811243%"><stop offset="0" stop-color="#8ae99c"/><stop offset="1" stop-color="#52ce63"/></linearGradient><linearGradient id="e" x1="51.37763%" x2="44.584719%" y1="17.472551%" y2="100%"><stop offset="0" stop-color="#ffe56c"/><stop offset="1" stop-color="#ffc63a"/></linearGradient><g fill="none" fill-rule="evenodd" transform="translate(-34 -24)"><g transform="matrix(.99254615 .12186934 -.12186934 .99254615 33.922073 .976691)"><path d="m103.950535 258.274149c44.361599-4.360825 60.014503-40.391282 65.353094-94.699444s-30.93219-103.451001-46.020347-101.9678079c-15.088156 1.4831932-63.0385313 58.9051239-68.3771222 113.2132869-5.3385908 54.308162 4.6827754 87.814791 49.0443752 83.453965z" fill="url(#b)" transform="matrix(.70710678 -.70710678 .70710678 .70710678 -80.496332 125.892944)"/><path d="m275.876752 258.273992c44.3616 4.360826 53.167133-29.265322 47.828542-83.573485-5.338591-54.308162-52.073133-111.6105744-67.16129-113.0937675-15.088156-1.4831931-52.57477 47.5401275-47.236179 101.8482895s22.207328 90.458137 66.568927 94.818963z" fill="url(#c)" transform="matrix(.70710678 .70710678 -.70710678 .70710678 191.403399 -141.861963)"/><path d="m188.370027 216.876305c39.941834 0 50.95265-38.251987 50.95265-97.89874 0-59.6467532-37.367733-118.10125956-50.95265-118.10125956s-52.04735 58.45450636-52.04735 118.10125956c0 59.646753 12.105516 97.89874 52.04735 97.89874z" fill="url(#d)"/></g><path d="m184.473473 501c83.118854 0 150.526527-24.145148 150.526527-133.645148s-67.407673-199.354852-150.526527-199.354852c-83.118855 0-150.473473 89.854852-150.473473 199.354852s67.354618 133.645148 150.473473 133.645148z" fill="url(#e)"/><ellipse cx="260.5" cy="335" fill="#eaadcc" rx="21.5" ry="10"/><ellipse cx="102.5" cy="329" fill="#eaadcc" rx="21.5" ry="10" transform="matrix(.99254615 .12186934 -.12186934 .99254615 40.859033 -10.039292)"/><g transform="matrix(-.99939083 .0348995 .0348995 .99939083 269.284825 271.027667)"><path d="m73.1046985 58.2728794c6.7372416 4.9130333 14.3132632 6.6640587 22.7280649 5.2530761 8.4148016-1.4109825 14.5054466-5.2535769 18.2719346-11.527783" stroke="#000" stroke-linecap="round" stroke-linejoin="round" stroke-width="6" transform="matrix(.9998477 .01745241 -.01745241 .9998477 1.026464 -1.624794)"/><path d="m154.501124 3c-5.937545 0-11.312782 2.40629805-15.203644 6.29680621-3.89094 3.89058529-6.29748 9.26545449-6.29748 15.20263179 0 5.9376888 2.406488 11.3127422 6.297291 15.2034272 3.890886 3.8907673 9.266197 6.2971348 15.203833 6.2971348 5.937109 0 11.311896-2.4063889 15.202387-6.2972348 3.890299-3.8906535 6.296489-9.2656636 6.296489-15.2033272 0-5.9371521-2.406242-11.3119781-6.296677-15.20253181-3.890469-3.89058674-9.265181-6.29690619-15.202199-6.29690619z" fill="#000" /><path d="m154 21c0-3.865549 3.135362-7 6.999413-7 3.866399 0 7.000587 3.134451 7.000587 7s-3.134188 7-7.000587 7c-3.864051-.0011735-6.999413-3.134451-6.999413-7z" fill="#fff"/><path d="m24.5 13c-5.9375292 0-11.312426 2.406268-15.20299427 6.2967181-3.89069464 3.8905765-6.29700573 9.2654765-6.29700573 15.2027199 0 5.9377549 2.40625962 11.3128391 6.29681766 15.2035153 3.89059104 3.8907092 9.26556184 6.2970467 15.20318234 6.2970467 5.9371249 0 11.3122514-2.406419 15.2030371-6.2973229 3.8905441-3.8906623 6.2969629-9.2656416 6.2969629-15.2032391 0-5.937086-2.4064703-11.3118811-6.297151-15.2024437-3.890763-3.8906448-9.2658154-6.2969943-15.202849-6.2969943z" fill="#000" /><g fill="#fff"><path d="m136 24.499438c0 10.2185232 8.282911 18.500562 18.501124 18.500562 10.217089 0 18.498876-8.2820388 18.498876-18.500562 0-10.2173992-8.281787-18.499438-18.498876-18.499438-10.218213 0-18.501124 8.2820388-18.501124 18.499438zm-6 0c0-13.5311954 10.96929-24.499438 24.501124-24.499438 13.530838 0 24.498876 10.9683711 24.498876 24.499438 0 13.5319607-10.967808 24.500562-24.498876 24.500562-13.532064 0-24.501124-10.9684728-24.501124-24.500562z" fill-rule="nonzero" stroke="#fff" stroke-width="3"/><path d="m6 34.499438c0 10.2185232 8.2817873 18.500562 18.5 18.500562 10.2170889 0 18.5-8.2820388 18.5-18.500562 0-10.2173992-8.2829111-18.499438-18.5-18.499438-10.2182127 0-18.5 8.2820388-18.5 18.499438zm-6 0c0-13.531297 10.9682681-24.499438 24.5-24.499438 13.5309398 0 24.5 10.9684728 24.5 24.499438 0 13.5318591-10.96883 24.500562-24.5 24.500562-13.531962 0-24.5-10.9683711-24.5-24.500562z" fill-rule="nonzero" stroke="#fff" stroke-width="3"/><path d="m24 31c0-3.865549 3.134451-7 7-7s7 3.134451 7 7-3.134451 7-7 7-7-3.134451-7-7z"/></g></g><g stroke-linecap="round" stroke-width="11"><g stroke="#ecb732"><path d="m70.5 377.5 74 77"/><path d="m134.5 386.5-47 50"/></g><g stroke="#ecb732" transform="matrix(-1 0 0 1 298 377)"><path d="m.5.5 74 77"/><path d="m64.5 9.5-47 50"/></g><g stroke="#ffc73b" transform="matrix(0 1 -1 0 215 207)"><path d="m.5.5 49 49"/><path d="m.5 10.5 49 49" transform="matrix(-1 0 0 1 50 0)"/></g></g></g></svg>

<?xml version="1.0" encoding="UTF-8" standalone="no"?>
<svg
   height="477"
   viewBox="-10 -40 929.93731 550"
   width="850"
   version="1.1"
   id="svg73"
   sodipodi:docname="pinia.svg"
   inkscape:version="1.1 (c68e22c387, 2021-05-23)"
   xmlns:inkscape="http://www.inkscape.org/namespaces/inkscape"
   xmlns:sodipodi="http://sodipodi.sourceforge.net/DTD/sodipodi-0.dtd"
   xmlns:xlink="http://www.w3.org/1999/xlink"
   xmlns="http://www.w3.org/2000/svg"
   xmlns:svg="http://www.w3.org/2000/svg">
  <defs
     id="defs77">
    <rect
       x="424.25482"
       y="169.70192"
       width="240.79327"
       height="126.1298"
       id="rect10841" />
  </defs>
  <sodipodi:namedview
     id="namedview75"
     pagecolor="#ffffff"
     bordercolor="#666666"
     borderopacity="1.0"
     inkscape:pageshadow="2"
     inkscape:pageopacity="0.0"
     inkscape:pagecheckerboard="0"
     showgrid="false"
     inkscape:zoom="0.4360587"
     inkscape:cx="465.53365"
     inkscape:cy="223.59375"
     inkscape:window-width="1920"
     inkscape:window-height="1017"
     inkscape:window-x="1912"
     inkscape:window-y="-8"
     inkscape:window-maximized="1"
     inkscape:current-layer="layer1" />
  <linearGradient
     id="a">
    <stop
       offset="0"
       stop-color="#52ce63"
       id="stop2" />
    <stop
       offset="1"
       stop-color="#51a256"
       id="stop4" />
  </linearGradient>
  <linearGradient
     id="b"
     x1="153.55664"
     x2="134.59956"
     xlink:href="#a"
     y1="47.287312"
     y2="112.16116"
     gradientTransform="scale(0.76797326,1.3021287)"
     gradientUnits="userSpaceOnUse" />
  <linearGradient
     id="c"
     x1="355.58673"
     x2="336.60062"
     xlink:href="#a"
     y1="47.301655"
     y2="112.19507"
     gradientTransform="scale(0.76820916,1.3017288)"
     gradientUnits="userSpaceOnUse" />
  <linearGradient
     id="d"
     x1="271.9921"
     x2="271.9921"
     y1="0.60512799"
     y2="88.326584"
     gradientTransform="scale(0.69054461,1.4481324)"
     gradientUnits="userSpaceOnUse">
    <stop
       offset="0"
       stop-color="#8ae99c"
       id="stop9" />
    <stop
       offset="1"
       stop-color="#52ce63"
       id="stop11" />
  </linearGradient>
  <linearGradient
     id="e"
     x1="198.42117"
     x2="176.91508"
     y1="215.04147"
     y2="476.32004"
     gradientTransform="scale(0.95073861,1.0518138)"
     gradientUnits="userSpaceOnUse">
    <stop
       offset="0"
       stop-color="#ffe56c"
       id="stop14" />
    <stop
       offset="1"
       stop-color="#ffc63a"
       id="stop16" />
  </linearGradient>
  <g
     fill="none"
     fill-rule="evenodd"
     transform="translate(-18.134615,-34.576923)"
     id="g71">
    <g
       transform="rotate(6.9999998,8.9766626,277.79885)"
       id="g25">
      <path
         d="m 103.95054,258.27415 c 44.36159,-4.36083 60.0145,-40.39128 65.35309,-94.69944 C 174.64222,109.26654 138.37144,60.123704 123.28328,61.606897 108.19513,63.09009 60.244751,120.51202 54.90616,174.82018 c -5.338591,54.30817 4.682775,87.8148 49.04438,83.45397 z"
         fill="url(#b)"
         transform="rotate(-45,111.71806,160.11414)"
         id="path19"
         style="fill:url(#b)" />
      <path
         d="m 275.87675,258.27399 c 44.3616,4.36083 53.16713,-29.26532 47.82854,-83.57348 C 318.3667,120.39235 271.63216,63.089933 256.544,61.60674 c -15.08815,-1.483194 -52.57477,47.54013 -47.23618,101.84829 5.3386,54.30816 22.20733,90.45814 66.56893,94.81896 z"
         fill="url(#c)"
         transform="rotate(45,266.94424,160.11336)"
         id="path21"
         style="fill:url(#c)" />
      <path
         d="m 188.37003,216.8763 c 39.94183,0 50.95265,-38.25198 50.95265,-97.89873 0,-59.646758 -37.36774,-118.10126456 -50.95265,-118.10126456 -13.58492,0 -52.04735,58.45450656 -52.04735,118.10126456 0,59.64675 12.10551,97.89873 52.04735,97.89873 z"
         fill="url(#d)"
         id="path23"
         style="fill:url(#d)" />
    </g>
    <path
       d="M 184.47347,501 C 267.59233,501 335,476.85485 335,367.35485 335,257.85485 267.59233,168 184.47347,168 101.35462,168 34,257.85485 34,367.35485 34,476.85485 101.35462,501 184.47347,501 Z"
       fill="url(#e)"
       id="path27"
       style="fill:url(#e)" />
    <ellipse
       cx="260.5"
       cy="335"
       fill="#eaadcc"
       rx="21.5"
       ry="10"
       id="ellipse29" />
    <ellipse
       cx="102.5"
       cy="329"
       fill="#eaadcc"
       rx="21.5"
       ry="10"
       transform="rotate(6.9999998,102.50001,329)"
       id="ellipse31" />
    <g
       transform="matrix(-0.99939083,0.0348995,0.0348995,0.99939083,269.28482,271.02767)"
       id="g49">
      <path
         d="m 73.104698,58.272879 c 6.737242,4.913034 14.313264,6.664059 22.728065,5.253077 8.414807,-1.410983 14.505447,-5.253577 18.271937,-11.527783"
         stroke="#000000"
         stroke-linecap="round"
         stroke-linejoin="round"
         stroke-width="6"
         transform="rotate(1.0000002,93.604673,57.99818)"
         id="path33" />
      <path
         d="M 154.50112,3 C 148.56358,3 143.18834,5.406298 139.29748,9.2968062 135.40654,13.187392 133,18.562261 133,24.499438 c 0,5.937689 2.40649,11.312742 6.29729,15.203427 C 143.18818,43.593632 148.56349,46 154.50112,46 c 5.93711,0 11.3119,-2.406389 15.20239,-6.297235 C 173.59381,35.812112 176,30.437102 176,24.499438 176,18.562286 173.59376,13.18746 169.70332,9.2969062 165.81285,5.4063195 160.43814,3 154.50112,3 Z"
         fill="#000000"
         id="path35" />
      <path
         d="m 154,21 c 0,-3.865549 3.13536,-7 6.99941,-7 3.8664,0 7.00059,3.134451 7.00059,7 0,3.865549 -3.13419,7 -7.00059,7 C 157.13536,27.998826 154,24.865549 154,21 Z"
         fill="#ffffff"
         id="path37" />
      <path
         d="M 24.5,13 C 18.562471,13 13.187574,15.406268 9.2970057,19.296718 5.4063111,23.187295 3,28.562195 3,34.499438 3,40.437193 5.4062596,45.812277 9.2968177,49.702953 13.187409,53.593662 18.562379,56 24.5,56 30.437125,56 35.812251,53.593581 39.703037,49.702677 43.593581,45.812015 46,40.437035 46,34.499438 46,28.562352 43.59353,23.187557 39.702849,19.296994 35.812086,15.40635 30.437034,13 24.5,13 Z"
         fill="#000000"
         id="path39" />
      <g
         fill="#ffffff"
         id="g47">
        <path
           d="M 136,24.499438 C 136,34.717961 144.28291,43 154.50112,43 164.71821,43 173,34.717961 173,24.499438 173,14.282039 164.71821,6 154.50112,6 144.28291,6 136,14.282039 136,24.499438 Z m -6,0 C 130,10.968243 140.96929,0 154.50112,0 168.03196,0 179,10.968371 179,24.499438 179,38.031399 168.03219,49 154.50112,49 140.96906,49 130,38.031527 130,24.499438 Z"
           fill-rule="nonzero"
           stroke="#ffffff"
           stroke-width="3"
           id="path41" />
        <path
           d="M 6,34.499438 C 6,44.717961 14.281787,53 24.5,53 34.717089,53 43,44.717961 43,34.499438 43,24.282039 34.717089,16 24.5,16 14.281787,16 6,24.282039 6,34.499438 Z m -6,0 C 0,20.968141 10.968268,10 24.5,10 38.03094,10 49,20.968473 49,34.499438 49,48.031297 38.03117,59 24.5,59 10.968038,59 0,48.031629 0,34.499438 Z"
           fill-rule="nonzero"
           stroke="#ffffff"
           stroke-width="3"
           id="path43" />
        <path
           d="m 24,31 c 0,-3.865549 3.134451,-7 7,-7 3.865549,0 7,3.134451 7,7 0,3.865549 -3.134451,7 -7,7 -3.865549,0 -7,-3.134451 -7,-7 z"
           id="path45" />
      </g>
    </g>
    <g
       stroke-linecap="round"
       stroke-width="11"
       id="g69">
      <g
         stroke="#ecb732"
         id="g55">
        <path
           d="m 70.5,377.5 74,77"
           id="path51" />
        <path
           d="m 134.5,386.5 -47,50"
           id="path53" />
      </g>
      <g
         stroke="#ecb732"
         transform="matrix(-1,0,0,1,298,377)"
         id="g61">
        <path
           d="m 0.5,0.5 74,77"
           id="path57" />
        <path
           d="m 64.5,9.5 -47,50"
           id="path59" />
      </g>
      <g
         stroke="#ffc73b"
         transform="rotate(90,4,211)"
         id="g67">
        <path
           d="m 0.5,0.5 49,49"
           id="path63" />
        <path
           d="m 0.5,10.5 49,49"
           transform="matrix(-1,0,0,1,50,0)"
           id="path65" />
      </g>
    </g>
  </g>
  <g
     inkscape:groupmode="layer"
     id="layer1"
     inkscape:label="name">
    <text
       xml:space="preserve"
       transform="matrix(1.9689425,0,0,2.2919219,-435.33733,-244.29199)"
       id="text10839"
       style="font-size:40px;line-height:1.25;font-family:sans-serif;-inkscape-font-specification:sans-serif;white-space:pre;shape-inside:url(#rect10841)"><tspan
         x="424.25391"
         y="254.63867"
         id="tspan33976"><tspan
           style="font-size:96px;-inkscape-font-specification:'sans-serif, Normal'"
           id="tspan33974">Pinia</tspan></tspan></text>
  </g>
</svg>
